!!!OTL: Sagt, wo sind die Veilchen hin?
!!!OTL-incipit:SAGT WO SIND DIE VEILCHEN HIN
!!!COM: J. A. P. Schulz
!!!ARE: Europa, Mitteleuropa, Deutschland
!!!SCT: F0311
!!!TXL: @@DE
!!!YEM: Copyright 1995, estate of Helmut Schaffrath.
**kern	**text
*ICvox	*
*Ivox	*
!! Mixed meters:  2/4; 6/8
*M2/4	*
*k[b-]	*
*F:	*
=1	=1
!LO:TX:a:t=Etwas langſam.	!
{8.f	Sagt,
16f	wo
8cc	ſind
8cc	die
=2	=2
8ff	Veilchen
8ff	.
8ffqq	.
4ee}	hin,
=3	=3
{8dd	die
8cc	ſo
8ff	freu-
(16aL	-dig
16ddJ)	.
=4	=4
8ccqq	.
4b-	glänʒten
4a}	.
=5	=5
!LO:TX:a:t=P:only the highest voice encoded:problem	!
{8g	und
8a	der
8ccqq	.
8b-/	Blu-
(16aL	-men-
16gJ)	.
=6	=6
32aqqL	.
32b-qqJ	.
8.cc/	-kö-
16b-/	-ni-
4a}	-gin
=7	=7
{8g	-ih-
8f	-ren
8b-/	Weg
8a	be-
=8	=8
4a	-kränʒ-
8g	-ten?
8r}	.
=9	=9
*M6/8	*
!LO:TX:a:t=Etwas langſamer. Dreiſtimmig.	!
{4f	Jüng-
8c	-ling,
(8a-L	ach!
8gJ)	.
8f	der
=10	=10
4ff	Lenʒ
8ff	ent-
4ee	-flieht;
8r}	.
=11	=11
{4g	die-
8a	-ſe
4b-X/	Veil-
8a	-chen
=12	=12
4.d	ſind
4.e	ver-
=13	=13
4.f	-blüht!
4r	.
8r}	.
==	==
!!!AGN: Jugend - Lied, Moral, Vergaenglichkeit
!!!ONB: ESAC (Essen Associative Code) Database: FINK
!!!AMT: irregular
!!!AIN: vox
!!!EED: Helmut Schaffrath
!!!EEV: 1.0
!!!GTL: Jugendlieder
!!Text: J. G. Jacobi
!!!source: Musikalischer Hausschatz der Deutschen. Eine Sammlung von über 1000 Liedern und Gesängen mit Singstimmen und Klavierbegleitung. Leipzig, Litterarisches Verlags-Haus.
!!!page: 186
!!!URL-scan: https://www.digitale-sammlungen.de/en/view/bsb11144622?page=184,185
!!!ENC: Anna Maria Matuszewska
!!!EEV: 2024/07/30
*-	*-